apps/block_scout_web/assets/static/images/xdai_logo.svg

<svg fill="none" height="26" viewBox="0 0 105 26" width="105" xmlns="http://www.w3.org/2000/svg"><path clip-rule="evenodd" d="m9.94947 0h-9.94947v5.15898h9.94947zm15.10843 0h-9.9494v5.15898h9.9494zm-9.9494 19.8989h4.7904v-4.7904h5.159v4.7904 5.159h-5.159-4.7904zm-5.15903 0h-4.79049v-4.7904h-5.15898v4.7904 5.159h5.15898 4.79049z" fill="#62a7a5" fill-rule="evenodd"/><g fill="#252a30"><path d="m39.5813 10.9936 1.2984-2.07586h2.2044l-2.1973 3.40616 2.29 3.5476h-2.2115l-1.3769-2.1851-1.3697 2.1851h-2.2187l2.29-3.5476-2.1901-3.40616h2.2115z"/><path d="m44.2112 15.8715v-9.35736h3.1961c.9131 0 1.7288.18637 2.4469.55912.7229.36847 1.2865.89546 1.6908 1.58098.4042.68124.6064 1.45676.6064 2.32646v.4306c0 .8698-.1998 1.6431-.5993 2.3201-.3947.6769-.9536 1.2018-1.6765 1.5745-.7229.3728-1.5385.5613-2.4469.5656zm2.1402-7.79566v6.24676h1.0345c.837 0 1.4767-.2463 1.919-.7391.4423-.4927.6682-1.1975.6777-2.1143v-.4949c0-.9512-.2187-1.67096-.6563-2.15939-.4375-.49272-1.0772-.73907-1.919-.73907z"/><path d="m58.0512 15.8715c-.0951-.1671-.1641-.3749-.2069-.6234-.4994.5013-1.1486.7519-1.9476.7519-.7562 0-1.384-.1971-1.8834-.5913-.4946-.3941-.7419-.8911-.7419-1.491 0-.7369.302-1.3024.906-1.6966.6088-.3942 1.4863-.5934 2.6325-.5977h.9488v-.3985c0-.3213-.0928-.5784-.2782-.7712-.1808-.1928-.4685-.2892-.8633-.2892-.3471 0-.6206.075-.8204.225-.195.1499-.2925.3556-.2925.6169h-2.0617c0-.4027.1379-.7755.4138-1.11823.2758-.34275.6658-.61053 1.17-.80334.5041-.19708 1.0701-.29563 1.6979-.29563.9512 0 1.705.21637 2.2614.6491.5612.42845.8418 1.0326.8418 1.8123v3.0142c.0048.6598.1071 1.1589.3068 1.4974v.1093zm-1.705-1.2918c.3043 0 .5849-.06.8418-.18.2568-.1242.447-.2892.5707-.4948v-1.1954h-.7705c-1.032 0-1.5814.3213-1.6479.964l-.0072.1093c0 .2313.0904.422.2711.572.1807.1499.4281.2249.742.2249z"/><path d="m63.5872 15.8715h-2.0689v-6.95376h2.0689zm-2.1902-8.75325c0-.27849.1023-.50771.3068-.68766.2092-.17995.4922-.26992.8489-.26992.352 0 .6326.08997.8418.26992.2093.17995.3139.40917.3139.68766 0 .28278-.107.51414-.321.69409-.2093.17995-.4875.26992-.8347.26992s-.6278-.08997-.8418-.26992c-.2092-.17995-.3139-.41131-.3139-.69409z"/><path d="m77.2202 12.7545c-.0808 1.0069-.4946 1.7995-1.2413 2.3779-.7419.5784-1.7217.8676-2.9392.8676-1.3317 0-2.3804-.4027-3.1461-1.2082-.7609-.8098-1.1414-1.9195-1.1414-3.3291v-.572c0-.8997.1759-1.69233.5279-2.37785.3519-.68551.8537-1.21036 1.5053-1.57455.6563-.36846 1.4172-.5527 2.2828-.5527 1.1985 0 2.164.28921 2.8964.86761.7325.57841 1.1557 1.39032 1.2699 2.43574h-2.1402c-.0523-.60412-.2402-1.04113-.5636-1.31106-.3186-.27421-.8061-.41131-1.4625-.41131-.7134 0-1.2484.23136-1.6051.69409-.352.45844-.5327 1.17181-.5422 2.14013v.7069c0 1.0112.1688 1.7502.5065 2.2172.3425.467.8799.7006 1.6123.7006.6611 0 1.1533-.135 1.4767-.4049.3282-.2742.5161-.6963.5636-1.2661z"/><path d="m80.5019 9.67609c.5469-.59126 1.2341-.88689 2.0617-.88689 1.6741 0 2.523.87618 2.5468 2.6285v4.4538h-2.0617v-4.4023c0-.3985-.0951-.692-.2854-.8805-.1902-.1928-.5065-.2892-.9488-.2892-.604 0-1.0415.2099-1.3126.6298v4.9422h-2.0618v-9.8715h2.0618z"/><path d="m91.1386 15.8715c-.0951-.1671-.164-.3749-.2068-.6234-.4994.5013-1.1486.7519-1.9476.7519-.7562 0-1.384-.1971-1.8834-.5913-.4946-.3941-.7419-.8911-.7419-1.491 0-.7369.302-1.3024.906-1.6966.6088-.3942 1.4862-.5934 2.6324-.5977h.9489v-.3985c0-.3213-.0928-.5784-.2783-.7712-.1807-.1928-.4684-.2892-.8632-.2892-.3472 0-.6206.075-.8204.225-.195.1499-.2925.3556-.2925.6169h-2.0617c0-.4027.1379-.7755.4138-1.11823.2758-.34275.6658-.61053 1.1699-.80334.5042-.19708 1.0701-.29563 1.6979-.29563.9512 0 1.705.21637 2.2615.6491.5612.42845.8418 1.0326.8418 1.8123v3.0142c.0048.6598.107 1.1589.3068 1.4974v.1093zm-1.705-1.2918c.3044 0 .585-.06.8418-.18.2569-.1242.4471-.2892.5708-.4948v-1.1954h-.7705c-1.0321 0-1.5814.3213-1.648.964l-.0071.1093c0 .2313.0904.422.2711.572.1807.1499.428.2249.7419.2249z"/><path d="m96.6746 15.8715h-2.0688v-6.95376h2.0688zm-2.1901-8.75325c0-.27849.1022-.50771.3068-.68766.2092-.17995.4922-.26992.8489-.26992.3519 0 .6325.08997.8418.26992s.3139.40917.3139.68766c0 .28278-.107.51414-.321.69409-.2093.17995-.4875.26992-.8347.26992s-.6278-.08997-.8418-.26992c-.2093-.17995-.3139-.41131-.3139-.69409z"/><path d="m100.277 8.91774.065.80334c.551-.62125 1.291-.93188 2.218-.93188.818 0 1.427.21637 1.826.6491.4.43274.604 1.0797.614 1.9409v4.4923h-2.062v-4.4473c0-.3942-.095-.6791-.285-.8548-.19-.1799-.507-.2699-.949-.2699-.58 0-1.015.2228-1.305.6684v4.9036h-2.0622v-6.95376z"/></g></svg>

<svg width="105" height="26" viewBox="0 0 105 26" fill="none" xmlns="http://www.w3.org/2000/svg">
<path fill-rule="evenodd" clip-rule="evenodd" d="M9.94947 0H0V5.15898H9.94947V0ZM25.0579 0H15.1085V5.15898H25.0579V0ZM15.1085 19.8989H19.8989V15.1085H25.0579V19.8989V25.0579H19.8989H15.1085V19.8989ZM9.94947 19.8989H5.15898V15.1085H0V19.8989V25.0579H5.15898H9.94947V19.8989Z" fill="#62A7A5"/>
<path d="M39.5813 10.9936L40.8797 8.91774H43.0841L40.8868 12.3239L43.1768 15.8715H40.9653L39.5884 13.6864L38.2187 15.8715H36L38.29 12.3239L36.0999 8.91774H38.3114L39.5813 10.9936Z" fill="#252A30"/>
<path d="M44.2112 15.8715V6.51414H47.4073C48.3204 6.51414 49.1361 6.70051 49.8542 7.07326C50.5771 7.44173 51.1407 7.96872 51.545 8.65424C51.9492 9.33548 52.1514 10.111 52.1514 10.9807V11.4113C52.1514 12.2811 51.9516 13.0544 51.5521 13.7314C51.1574 14.4083 50.5985 14.9332 49.8756 15.3059C49.1527 15.6787 48.3371 15.8672 47.4287 15.8715H44.2112ZM46.3514 8.07584V14.3226H47.3859C48.2229 14.3226 48.8626 14.0763 49.3049 13.5835C49.7472 13.0908 49.9731 12.386 49.9826 11.4692V10.9743C49.9826 10.0231 49.7639 9.30334 49.3263 8.81491C48.8888 8.32219 48.2491 8.07584 47.4073 8.07584H46.3514Z" fill="#252A30"/>
<path d="M58.0512 15.8715C57.9561 15.7044 57.8871 15.4966 57.8443 15.2481C57.3449 15.7494 56.6957 16 55.8967 16C55.1405 16 54.5127 15.8029 54.0133 15.4087C53.5187 15.0146 53.2714 14.5176 53.2714 13.9177C53.2714 13.1808 53.5734 12.6153 54.1774 12.2211C54.7862 11.8269 55.6637 11.6277 56.8099 11.6234H57.7587V11.2249C57.7587 10.9036 57.6659 10.6465 57.4805 10.4537C57.2997 10.2609 57.012 10.1645 56.6172 10.1645C56.2701 10.1645 55.9966 10.2395 55.7968 10.3895C55.6018 10.5394 55.5043 10.7451 55.5043 11.0064H53.4426C53.4426 10.6037 53.5805 10.2309 53.8564 9.88817C54.1322 9.54542 54.5222 9.27764 55.0264 9.08483C55.5305 8.88775 56.0965 8.7892 56.7243 8.7892C57.6755 8.7892 58.4293 9.00557 58.9857 9.4383C59.5469 9.86675 59.8275 10.4709 59.8275 11.2506V14.2648C59.8323 14.9246 59.9346 15.4237 60.1343 15.7622V15.8715H58.0512ZM56.3462 14.5797C56.6505 14.5797 56.9311 14.5197 57.188 14.3997C57.4448 14.2755 57.635 14.1105 57.7587 13.9049V12.7095H56.9882C55.9562 12.7095 55.4068 13.0308 55.3403 13.6735L55.3331 13.7828C55.3331 14.0141 55.4235 14.2048 55.6042 14.3548C55.7849 14.5047 56.0323 14.5797 56.3462 14.5797Z" fill="#252A30"/>
<path d="M63.5872 15.8715H61.5183V8.91774H63.5872V15.8715ZM61.397 7.11825C61.397 6.83976 61.4993 6.61054 61.7038 6.43059C61.913 6.25064 62.196 6.16067 62.5527 6.16067C62.9047 6.16067 63.1853 6.25064 63.3945 6.43059C63.6038 6.61054 63.7084 6.83976 63.7084 7.11825C63.7084 7.40103 63.6014 7.63239 63.3874 7.81234C63.1781 7.99229 62.8999 8.08226 62.5527 8.08226C62.2055 8.08226 61.9249 7.99229 61.7109 7.81234C61.5017 7.63239 61.397 7.40103 61.397 7.11825Z" fill="#252A30"/>
<path d="M77.2202 12.7545C77.1394 13.7614 76.7256 14.554 75.9789 15.1324C75.237 15.7108 74.2572 16 73.0397 16C71.708 16 70.6593 15.5973 69.8936 14.7918C69.1327 13.982 68.7522 12.8723 68.7522 11.4627V10.8907C68.7522 9.991 68.9281 9.19837 69.2801 8.51285C69.632 7.82734 70.1338 7.30249 70.7854 6.9383C71.4417 6.56984 72.2026 6.3856 73.0682 6.3856C74.2667 6.3856 75.2322 6.67481 75.9646 7.25321C76.6971 7.83162 77.1203 8.64353 77.2345 9.68895H75.0943C75.042 9.08483 74.8541 8.64782 74.5307 8.37789C74.2121 8.10368 73.7246 7.96658 73.0682 7.96658C72.3548 7.96658 71.8198 8.19794 71.4631 8.66067C71.1111 9.11911 70.9304 9.83248 70.9209 10.8008V11.5077C70.9209 12.5189 71.0897 13.2579 71.4274 13.7249C71.7699 14.1919 72.3073 14.4255 73.0397 14.4255C73.7008 14.4255 74.193 14.2905 74.5164 14.0206C74.8446 13.7464 75.0325 13.3243 75.08 12.7545H77.2202Z" fill="#252A30"/>
<path d="M80.5019 9.67609C81.0488 9.08483 81.736 8.7892 82.5636 8.7892C84.2377 8.7892 85.0866 9.66538 85.1104 11.4177V15.8715H83.0487V11.4692C83.0487 11.0707 82.9536 10.7772 82.7633 10.5887C82.5731 10.3959 82.2568 10.2995 81.8145 10.2995C81.2105 10.2995 80.773 10.5094 80.5019 10.9293V15.8715H78.4401V6H80.5019V9.67609Z" fill="#252A30"/>
<path d="M91.1386 15.8715C91.0435 15.7044 90.9746 15.4966 90.9318 15.2481C90.4324 15.7494 89.7832 16 88.9842 16C88.228 16 87.6002 15.8029 87.1008 15.4087C86.6062 15.0146 86.3589 14.5176 86.3589 13.9177C86.3589 13.1808 86.6609 12.6153 87.2649 12.2211C87.8737 11.8269 88.7511 11.6277 89.8973 11.6234H90.8462V11.2249C90.8462 10.9036 90.7534 10.6465 90.5679 10.4537C90.3872 10.2609 90.0995 10.1645 89.7047 10.1645C89.3575 10.1645 89.0841 10.2395 88.8843 10.3895C88.6893 10.5394 88.5918 10.7451 88.5918 11.0064H86.5301C86.5301 10.6037 86.668 10.2309 86.9439 9.88817C87.2197 9.54542 87.6097 9.27764 88.1138 9.08483C88.618 8.88775 89.1839 8.7892 89.8117 8.7892C90.7629 8.7892 91.5167 9.00557 92.0732 9.4383C92.6344 9.86675 92.915 10.4709 92.915 11.2506V14.2648C92.9198 14.9246 93.022 15.4237 93.2218 15.7622V15.8715H91.1386ZM89.4336 14.5797C89.738 14.5797 90.0186 14.5197 90.2754 14.3997C90.5323 14.2755 90.7225 14.1105 90.8462 13.9049V12.7095H90.0757C89.0436 12.7095 88.4943 13.0308 88.4277 13.6735L88.4206 13.7828C88.4206 14.0141 88.511 14.2048 88.6917 14.3548C88.8724 14.5047 89.1197 14.5797 89.4336 14.5797Z" fill="#252A30"/>
<path d="M96.6746 15.8715H94.6058V8.91774H96.6746V15.8715ZM94.4845 7.11825C94.4845 6.83976 94.5867 6.61054 94.7913 6.43059C95.0005 6.25064 95.2835 6.16067 95.6402 6.16067C95.9921 6.16067 96.2727 6.25064 96.482 6.43059C96.6913 6.61054 96.7959 6.83976 96.7959 7.11825C96.7959 7.40103 96.6889 7.63239 96.4749 7.81234C96.2656 7.99229 95.9874 8.08226 95.6402 8.08226C95.293 8.08226 95.0124 7.99229 94.7984 7.81234C94.5891 7.63239 94.4845 7.40103 94.4845 7.11825Z" fill="#252A30"/>
<path d="M100.277 8.91774L100.342 9.72108C100.893 9.09983 101.633 8.7892 102.56 8.7892C103.378 8.7892 103.987 9.00557 104.386 9.4383C104.786 9.87104 104.99 10.518 105 11.3792V15.8715H102.938V11.4242C102.938 11.03 102.843 10.7451 102.653 10.5694C102.463 10.3895 102.146 10.2995 101.704 10.2995C101.124 10.2995 100.689 10.5223 100.399 10.9679V15.8715H98.3368V8.91774H100.277Z" fill="#252A30"/>
</svg>
